!!!!SEGMENT: pl-cz--iii-348--001_kobierkowicz-jozef--caelum-gaude-terra-plaude.krn
!!!cenid: 17xx:924
!!!COM: Kobierkowicz, Józef
!!!COM-rismID: pe30017725
!!!CDT: <1721->=1735
!!!CNT: Polish
!!!OTL: Caelum gaude terra plaude
!!!PDT:
!!!AGN: Sacred
!!!SMS-siglum: PL-CZ
!!!SMS-shelfmark: III-348
!!!SMS-shelfwork: 001 W
!!!SMS-variant:
!!!SMS-altvar:
!!!NIFC-rismSourceID: 300237570
!!!NIFC-islandoraID: pl-cz:37803
!!!URL-pdf-islandora: https://repozytorium.nifc.pl/islandora/object/pl-cz%3A37803/datastream/PDF/view
!!!URL-scan:
!!!ONB-nifc: UWAGA: Caelum gaude terra plaude i Salve puelle centis to osobne utwory
!!!AIN: 1 bass 1 organ 1 soprn 1 viola 2 violn
!!!key: D
**kern	**fba	**kern	**kern	**dynam	**kern	**dynam	**kern	**text	**kern	**text
*group3	*	*group3	*group2	*group2	*group2	*group2	*group1	*group1	*group1	*group1
*part6	*part6	*part5	*part4	*part4	*part3	*part3	*part2	*part2	*part1	*part1
*staff6	*	*staff5	*staff4	*	*staff3	*	*staff2	*staff2	*staff1	*staff1
*IGcont	*	*IGacmp	*IGacmp	*	*IGacmp	*	*IGsolo	*	*IGsolo	*
*ICklav	*	*ICstr	*ICstr	*	*ICstr	*	*ICvox	*	*ICvox	*
*Iorgan	*	*Iviola	*Ivioln	*	*Ivioln	*	*Ibass	*	*Isoprn	*
*I"Organo	*	*I"Pro Viola	*I"Violino 2do.	*	*I"Violino Primo	*	*I"Baſso	*	*I"Canto.	*
*I'org	*	*I'vla	*I'vl 2	*	*I'vl 1	*	*I'B	*	*I'S	*
*	*	*mI"Violone	*mI"Violino II	*	*mI" Violino I	*	*mI"Basso	*	*mI"Soprano	*
*	*	*mI'vlne	*	*	*	*	*	*	*	*
*clefF4	*	*clefF4	*clefG2	*	*clefG2	*	*clefF4	*	*clefC1	*
*	*	*	*	*	*	*	*	*	*mclefG2	*
*k[f#c#]	*	*k[f#c#]	*k[f#c#]	*	*k[f#c#]	*	*k[f#c#]	*	*k[c#f#]	*
*D:	*	*D:	*D:	*	*D:	*	*D:	*	*D:	*
*M4/4	*	*M4/4	*M4/4	*	*M4/4	*	*M4/4	*	*M4/4	*
*met(2)	*	*met(2)	*met(2)	*below	*met(2)	*	*met(2)	*	*met(2)	*
*mmet(c|)	*	*mmet(c|)	*mmet(c|)	*	*mmet(c|)	*	*mmet(c|)	*	*mmet(c|)	*
=1	=1	=1	=1	=1	=1	=1	=1	=1	=1	=1
!LO:TX:mod=:t=P:problem=nazwa głosu uzupełniona na podstawie karty tytułowej	!	!	!LO:TX:a:mod=:t=3.	!	!LO:TX:mod=:t=P:problem=nazwa głosu uzupełniona na podstawie karty tytułowej	!	!	!	!	!
2D/	.	2D/	0r	.	4dd\	.	00r	.	00r	.
.	.	.	.	.	4ee\	.	.	.	.	.
2r	.	2r	.	.	4ff#\	.	.	.	.	.
.	.	.	.	.	4gg\	.	.	.	.	.
=2	=2	=2	=2	=2	=2	=2	=2	=2	=2	=2
2C#/	x 6	2C#/	.	.	2aa\	.	.	.	.	.
2BB/	x 6\	2BB/	.	.	2ddd\	.	.	.	.	.
=3	=3	=3	=3	=3	=3	=3	=3	=3	=3	=3
2AA/	.	2AA/	1r	.	2ccc#\	.	.	.	.	.
2r	.	2r	.	.	2aa\	.	.	.	.	.
=4	=4	=4	=4	=4	=4	=4	=4	=4	=4	=4
!	!	!	!	!	!LO:TX:a:mod=:t=2	!	!	!	!	!
2d|\	.	2d\	2dd\	.	0r	.	.	.	.	.
2A|\	.	2A\	2a/	.	.	.	.	.	.	.
=5	=5	=5	=5	=5	=5	=5	=5	=5	=5	=5
2F#|\	.	2F#\	2f#/	.	.	.	00r	.	00r	.
2D|\	.	2D/	2d/	.	.	.	.	.	.	.
=6	=6	=6	=6	=6	=6	=6	=6	=6	=6	=6
2AA|>/	.	2AA/	4A/	.	4a/	.	.	.	.	.
.	.	.	8B/L	.	8b\L	.	.	.	.	.
.	.	.	8c#/J	.	8cc#\J	.	.	.	.	.
2r	.	2r	4d/	.	4dd\	.	.	.	.	.
.	.	.	[>4g/	.	[<4gg\	.	.	.	.	.
=7	=7	=7	=7	=7	=7	=7	=7	=7	=7	=7
2AA|>/	.	2AA/	4g/]	.	4gg\]	.	.	.	.	.
.	.	.	4f#/	.	2ff#\	.	.	.	.	.
2r	.	2r	4dd\	.	.	.	.	.	.	.
.	.	.	4cc#\	.	4ee\	.	.	.	.	.
=8	=8	=8	=8	=8	=8	=8	=8	=8	=8	=8
2AA|>/	.	2AA/	4A/	.	4a/	.	.	.	.	.
.	.	.	8B/L	.	8b\L	.	.	.	.	.
.	.	.	8c#/J	.	8cc#\J	.	.	.	.	.
2r	.	2r	4d/	.	4dd\	.	.	.	.	.
.	.	.	[4g/	.	[4gg\	.	.	.	.	.
=9	=9	=9	=9	=9	=9	=9	=9	=9	=9	=9
2AA|>/	.	2AA/	4g/]	.	4gg\]	.	00r	.	00r	.
.	.	.	4f#/	.	2ff#\	.	.	.	.	.
2r	.	2r	4dd\	.	.	.	.	.	.	.
.	.	.	4cc#\	.	4ee\	.	.	.	.	.
=10	=10	=10	=10	=10	=10	=10	=10	=10	=10	=10
!	!	!	!LO:TX:a:mod=:t=1	!	!	!	!	!	!	!
4A\	.	4A\	1r	.	4ee\	.	.	.	.	.
4A\	.	4A\	.	.	2cc#\	.	.	.	.	.
4A\	.	4A\	.	.	.	.	.	.	.	.
4A\	.	4A\	.	.	4aa\	.	.	.	.	.
=11	=11	=11	=11	=11	=11	=11	=11	=11	=11	=11
!	!	!	!	!	!	!	!	!	!	!
2d\	x 7	2d\	4cc#\	.	8ff#\L	.	.	.	.	.
.	.	.	.	.	8gg\	.	.	.	.	.
.	.	.	2a/	.	8aa\	.	.	.	.	.
.	.	.	.	.	8gg\J	.	.	.	.	.
4r	.	4r	.	.	8ff#\L	.	.	.	.	.
.	.	.	.	.	8ee\	.	.	.	.	.
!	!	!	!LO:TX:mod=:t=P:problem=dźwięk nieczytelny	!	!	!	!	!	!	!
!	!	!	!LO:MO:mod=4ff#\	!	!	!	!	!	!	!
4D/	x 7	4D/	4ff#\yy	.	8dd\	.	.	.	.	.
.	.	.	.	.	8cc#\J	.	.	.	.	.
=12	=12	=12	=12	=12	=12	=12	=12	=12	=12	=12
4G\	x 7	4G\	8dd\L	.	4dd\	.	.	.	.	.
.	.	.	8ee\	.	.	.	.	.	.	.
4G\	.	4G\	8ff#\	.	2b/	.	.	.	.	.
.	.	.	8ee\J	.	.	.	.	.	.	.
4G\	.	4G\	8dd\L	.	.	.	.	.	.	.
.	.	.	8cc#\	.	.	.	.	.	.	.
4G\	.	4G\	8b\	.	4gg\	.	.	.	.	.
.	.	.	8a\J	.	.	.	.	.	.	.
=13	=13	=13	=13	=13	=13	=13	=13	=13	=13	=13
2c#\	x 7	2c#\	4b/	.	8ee\L	.	00r	.	00r	.
.	.	.	.	.	8ff#\	.	.	.	.	.
!	!	!	!	!	!LO:TX:mod=:t=P:problem=dźwięk nieczytelny	!	!	!	!	!
!	!	!	!	!	!LO:MO:mod=8gg\	!	!	!	!	!
.	.	.	2g/	.	8gg\yy	.	.	.	.	.
.	.	.	.	.	8ff#\J	.	.	.	.	.
4r	.	4r	.	.	8ee\L	.	.	.	.	.
.	.	.	.	.	8dd\	.	.	.	.	.
4C#/	x 7	4C#/	4ee\	.	8cc#\	.	.	.	.	.
.	.	.	.	.	8b\J	.	.	.	.	.
=14	=14	=14	=14	=14	=14	=14	=14	=14	=14	=14
4F#\	x 7	4F#\	8cc#\L	.	4cc#\	.	.	.	.	.
.	.	.	8dd\	.	.	.	.	.	.	.
4F#\	.	4F#\	8ee\	.	2a/	.	.	.	.	.
.	.	.	8dd\J	.	.	.	.	.	.	.
4F#\	.	4F#\	8cc#\L	.	.	.	.	.	.	.
.	.	.	8b\	.	.	.	.	.	.	.
4F#\	.	4F#\	8a\	.	4ff#\	.	.	.	.	.
.	.	.	8g\J	.	.	.	.	.	.	.
=15	=15	=15	=15	=15	=15	=15	=15	=15	=15	=15
2B\	x 7	2B\	4a/	.	8dd\L	.	.	.	.	.
.	.	.	.	.	8ee\	.	.	.	.	.
.	.	.	2f#/	.	8ff#\	.	.	.	.	.
.	.	.	.	.	8ee\J	.	.	.	.	.
4r	.	4r	.	.	8dd\L	.	.	.	.	.
.	.	.	.	.	8cc#\	.	.	.	.	.
4BB/	x 7	4BB/	4dd\	.	8b\	.	.	.	.	.
.	.	.	.	.	8a\J	.	.	.	.	.
=16	=16	=16	=16	=16	=16	=16	=16	=16	=16	=16
4E\	x 7	4E\	8b\L	.	4b/	.	.	.	.	.
.	.	.	8cc#\	.	.	.	.	.	.	.
4E\	.	4E\	8dd\	.	2g/	.	.	.	.	.
.	.	.	8cc#\J	.	.	.	.	.	.	.
4E\	.	4E\	8b/L	.	.	.	.	.	.	.
.	.	.	8a/	.	.	.	.	.	.	.
4E\	.	4E\	8g/	.	4ee\	.	.	.	.	.
.	.	.	8f#/J	.	.	.	.	.	.	.
=17	=17	=17	=17	=17	=17	=17	=17	=17	=17	=17
2AA|>/	.	2AA/	4cc#\	.	4ee\	.	00r	.	00r	.
.	.	.	2dd\	.	2ff#\	.	.	.	.	.
2r	.	2r	.	.	.	.	.	.	.	.
.	.	.	4ee\	.	[4gg\	.	.	.	.	.
=18	=18	=18	=18	=18	=18	=18	=18	=18	=18	=18
!	!	!	!LO:LB:g=original	!	!	!	!	!	!	!
2AA|>/	.	2AA/	4ee\	.	4gg\]	.	.	.	.	.
.	.	.	2dd\	.	2ff#\	.	.	.	.	.
2r	.	2r	.	.	.	.	.	.	.	.
.	.	.	4cc#\	.	4ee\	.	.	.	.	.
=19	=19	=19	=19	=19	=19	=19	=19	=19	=19	=19
!	!	!	!	!LO:MO:mod=!null:null	!	!LO:MO:mod=!null:null	!	!	!	!
!LO:LB:g=original	!	!	!	!LO:DY:a	!LO:LB:g=original	!LO:DY:a	!	!	!	!
2AA|>/	.	2AA/	4c#/	p	4e/	p	.	.	.	.
.	.	.	2d/	.	2f#/	.	.	.	.	.
2r	.	2r	.	.	.	.	.	.	.	.
.	.	.	[>4e/	.	[>4g/	.	.	.	.	.
=20	=20	=20	=20	=20	=20	=20	=20	=20	=20	=20
!	!	!LO:LB:g=original	!	!	!	!	!	!	!	!
2AA|>/	.	2A\	4e/]	.	4g/]	.	.	.	.	.
.	.	.	2d/	.	2f#/	.	.	.	.	.
2r	.	2r	.	.	.	.	.	.	.	.
.	.	.	4c#/	.	4e/	.	.	.	.	.
=21	=21	=21	=21	=21	=21	=21	=21	=21	=21	=21
!LO:TX:a:mod=:t=1	!	!LO:TX:a:mod=:t=1	!	!	!	!LO:DY:b	!	!	!	!
1r	.	1r	2ddd\	f	2ddd\	f	00r	.	0r	.
.	.	.	4r	.	4r	.	.	.	.	.
.	.	.	4e/	.	4g/	.	.	.	.	.
=22	=22	=22	=22	=22	=22	=22	=22	=22	=22	=22
2A\	6 4	2A\	2d|>/	.	2f#|>/	.	.	.	.	.
2AA/	5 3	2AA/	2c#|>/	.	2e|>/	.	.	.	.	.
=23	=23	=23	=23	=23	=23	=23	=23	=23	=23	=23
2D\	.	2D\	2d/	.	2d/	.	.	.	1r	.
2r	.	2r	2r	.	2r	.	.	.	.	.
=24	=24	=24	=24	=24	=24	=24	=24	=24	=24	=24
!LO:MO:mod=!LO&colon;TX&colon;i&colon;b&colon;t=canto	!	!	!LO:TX:a:mod=:t=3.	!	!	!LO:DY:b	!	!	!	!
!null	!	!	!	!	!	!	!	!	!	!
2D\	.	2D\	0r	.	4dd\	p	.	.	4d/	Cae-
.	.	.	.	.	4ee\	.	.	.	4e/	.
!LO:MO:mod=!null:null	!	!	!	!	!	!	!	!	!	!
!LO:TX:i:b:t=canto	!	!	!	!	!	!	!	!	!	!
2r	.	2r	.	.	4ff#\	.	.	.	4f#/	.
.	.	.	.	.	4gg\	.	.	.	4g/	.
=25	=25	=25	=25	=25	=25	=25	=25	=25	=25	=25
2C#/	x 6	2C#/	.	.	2aa\	.	0r	.	2a\	.
2BB/	x 6\	2BB/	.	.	2ddd\	.	.	.	2dd\	-lum
=26	=26	=26	=26	=26	=26	=26	=26	=26	=26	=26
2AA/	.	2AA/	1r	.	2ccc#\	.	.	.	2cc#\	gau-
2r	.	2r	.	.	2aa\	.	.	.	2a\	-de
=27	=27	=27	=27	=27	=27	=27	=27	=27	=27	=27
!LO:TX:i:t=Baſso.:b	!	!	!	!	!	!	!	!LO:MO:mod=ter-	!LO:TX:a:mod=:t=2	!
2d|>\	.	2d\	2dd\	p	2ddd\	.	2d\	Ter-	0r	.
2A|>\	.	2A\	2a/	.	2aa\	.	2A\	-ra	.	.
=28	=28	=28	=28	=28	=28	=28	=28	=28	=28	=28
2F#|>\	.	2F#\	2f#/	.	2ff#\	.	2F#\	plau-	.	.
2D|>\	.	2D/	2d/	.	2dd\	.	2D/	-de	.	.
=29	=29	=29	=29	=29	=29	=29	=29	=29	=29	=29
!	!	!	!	!	!	!	!	!LO:MO:mod=Cae-	!	!LO:MO:mod=Cae-
2AA|>/	.	2AA/	4A/	.	4a/	.	4AA/	cae-	4a\	cae-
.	.	.	8B/L	.	8b\L	.	8BB/L	.	8b\L	.
.	.	.	8c#/J	.	8cc#\J	.	8C#/J	.	8cc#\J	.
2r	.	2r	4d/	.	4dd\	.	4D\	.	4dd\	.
.	.	.	[4g/	.	[<4gg\	.	[4G\	.	[4gg\	.
=30	=30	=30	=30	=30	=30	=30	=30	=30	=30	=30
2AA|>/	.	2AA/	4g/]	.	4gg\]	.	4G\]	.	4gg\]	.
.	.	.	4f#/	.	2ff#\	.	4F#\	-lum	4ff#,<\	-lum
2r	.	2r	4dd\	.	.	.	4F#\	gau-	4ff#\	gau-
.	.	.	4cc#\	.	4ee\	.	4E\	-de	4ee\	-de
=31	=31	=31	=31	=31	=31	=31	=31	=31	=31	=31
!	!	!	!	!	!	!	!	!	!	!LO:MO:mod=ter-
2AA|>/	.	2AA/	4A/	.	4a/	.	4AA/	ter-	4a\	Ter-
.	.	.	8B/L	.	8b\L	.	8BB/L	.	8b\L	.
.	.	.	8c#/J	.	8cc#\J	.	8C#/J	.	8cc#\J	.
2r	.	2r	4d/	.	4dd\	.	4D\	.	4dd\	.
.	.	.	[4g/	.	[<4gg\	.	[4G\	.	[<4gg\	.
=32	=32	=32	=32	=32	=32	=32	=32	=32	=32	=32
2AA|>/	.	2AA/	4g/]	.	4gg\]	.	4G\]	.	4gg\]	.
.	.	.	4f#/	.	2ff#\	.	4F#\	-ra	4ff#\	-ra
2r	.	2r	4dd\	.	.	.	4F#\	plau-	4ff#\	plau-
.	.	.	4cc#\	.	4ee\	.	4E\	-de	4ee\	-de
=33	=33	=33	=33	=33	=33	=33	=33	=33	=33	=33
!	!	!	!	!LO:MO:mod=!null:null	!	!LO:MO:mod=!null:null	!	!	!	!
!	!	!	!	!LO:DY:a	!	!LO:DY:a	!	!	!	!
2A|>\	.	2A\	4A/	f	4a/	f	00r	.	00r	.
.	.	.	8B/L	.	8b\L	.	.	.	.	.
.	.	.	8c#/J	.	8cc#\J	.	.	.	.	.
2r	.	2r	4d/	.	4dd\	.	.	.	.	.
.	.	.	[4g/	.	[4gg\	.	.	.	.	.
=34	=34	=34	=34	=34	=34	=34	=34	=34	=34	=34
2A|>\	.	2A\	4g/]	.	4gg\]	.	.	.	.	.
.	.	.	4f#/	.	2ff#\	.	.	.	.	.
2r	.	2r	4dd\	.	.	.	.	.	.	.
.	.	.	4cc#\	.	4ee\	.	.	.	.	.
=35	=35	=35	=35	=35	=35	=35	=35	=35	=35	=35
2A|>\	.	2A\	4A/	.	4a/	.	.	.	.	.
.	.	.	8B/L	.	8b/L	.	.	.	.	.
.	.	.	8c#/J	.	8cc#/J	.	.	.	.	.
2r	.	2r	4d/	.	4dd\	.	.	.	.	.
.	.	.	[4g/	.	[<4gg\	.	.	.	.	.
=36	=36	=36	=36	=36	=36	=36	=36	=36	=36	=36
2A|>\	.	2A\	4g/]	.	4gg\]	.	.	.	.	.
.	.	.	4f#/	.	2ff#\	.	.	.	.	.
2r	.	2r	4dd\	.	.	.	.	.	.	.
.	.	.	4cc#\	.	4ee\	.	.	.	.	.
*	*	*	*custos:cc	*	*	*	*	*	*	*
=37	=37	=37	=37	=37	=37	=37	=37	=37	=37	=37
!	!	!	!	!LO:MO:mod=!null:null	!	!	!	!	!	!
!	!	!	!LO:LB:g=original	!LO:DY:a	!	!LO:DY:b	!	!LO:MO:mod=Cae-	!	!
4A\	.	4A\	4cc#\	p	4ee\	p	4E\	cae-	1r	.
4A\	.	4A\	4cc#\	.	4ee\	.	2C#/	.	.	.
4A\	.	4A\	4cc#\	.	4ee\	.	.	.	.	.
4A\	.	4A\	4cc#\	.	4ee\	.	4A\	-lum	.	.
*	*	*	*	*	*custos:ff	*	*	*	*	*
=38	=38	=38	=38	=38	=38	=38	=38	=38	=38	=38
!	!	!	!	!	!LO:LB:g=original	!	!	!	!	!LO:MO:mod=Cae-
4D/	x 7	4D/	4cc#\	.	4ff#\	.	8F#\L	gau-	4cc#\	cae-
.	.	.	.	.	.	.	8G\	.	.	.
4d\	x _	4d\	4cc#\	.	4ff#\	.	8A\	.	2a\	.
.	x x	.	.	.	.	.	8G\J	.	.	.
4r	.	4r	4r	.	4ff#\	.	8F#\L	.	.	.
.	.	.	.	.	.	.	8E\	.	.	.
4D/	.	4D/	4cc#\	.	4ff#\	.	8D\	.	4ff#\	-lum
.	.	.	.	.	.	.	8C#\J	.	.	.
*	*	*	*	*	*	*	*custos:D	*	*	*
=39	=39	=39	=39	=39	=39	=39	=39	=39	=39	=39
4G\	x 7	4G\	4b/	.	4ff#\	.	4D/	.	8dd\L	gau-
.	.	.	.	.	.	.	.	.	8ee\	.
4G\	.	4G\	4b/	.	4ff#\	.	2BB/	.	8ff#\	.
.	.	.	.	.	.	.	.	.	8ee\J	.
4G\	.	4G\	4b/	.	4r	.	.	.	8dd\L	.
.	.	.	.	.	.	.	.	.	8cc#\	.
4G\	.	4G\	4b/	.	4ff#\	.	4G\	.	8b\	.
.	.	.	.	.	.	.	.	.	8a\J	.
=40	=40	=40	=40	=40	=40	=40	=40	=40	=40	=40
!LO:LB:g=original	!	!	!	!	!	!	!	!	!LO:LB:g=original	!
4C#/	x 7	4C#/	4b/	.	4ee\	.	8E\L	.	4b\	.
.	.	.	.	.	.	.	8F#\	.	.	.
4c#\	.	4c#\	4b/	.	4ee\	.	8G\	.	2g/	.
.	.	.	.	.	.	.	8F#\J	.	.	.
4r	.	4r	4r	.	4ee\	.	8E\L	.	.	.
.	.	.	.	.	.	.	8D\	.	.	.
4C#/	.	4C#/	4b/	.	4ee\	.	8C#\	.	4ee\	.
.	.	.	.	.	.	.	8BB\J	.	.	.
*	*	*custos:F	*	*	*	*	*	*	*	*
=41	=41	=41	=41	=41	=41	=41	=41	=41	=41	=41
!	!	!LO:LB:g=original	!	!	!	!	!	!	!	!
4F#\	x 7	4F#\	4a/	.	4ee\	.	4C#/	.	8cc#\L	.
.	.	.	.	.	.	.	.	.	8dd\	.
4F#\	.	4F#\	4a/	.	4ee\	.	2AA/	.	8ee\	.
.	.	.	.	.	.	.	.	.	8dd\J	.
4F#\	.	4F#\	4a/	.	4r	.	.	.	8cc#\L	.
.	.	.	.	.	.	.	.	.	8b\	.
4F#\	.	4F#\	4a/	.	4ee\	.	4F#\	.	8a\	.
.	.	.	.	.	.	.	.	.	8g\J	.
=42	=42	=42	=42	=42	=42	=42	=42	=42	=42	=42
4BB/	x 7	4BB/	4a/	.	4dd\	.	8D\L	.	4a\	.
.	.	.	.	.	.	.	8E\	.	.	.
4B\	.	4B\	4a/	.	4dd\	.	8F#\	.	2f#/	.
.	.	.	.	.	.	.	8E\J	.	.	.
4r	.	4r	4r	.	4dd\	.	8D/L	.	.	.
.	.	.	.	.	.	.	8C#/	.	.	.
4BB/	.	4BB/	4a/	.	4dd\	.	8BB/	.	4dd\	.
.	.	.	.	.	.	.	8AA/J	.	.	.
=43	=43	=43	=43	=43	=43	=43	=43	=43	=43	=43
4E\	x 7	4E\	4g/	.	4dd\	.	4BB/	.	8b\L	.
.	.	.	.	.	.	.	.	.	8cc#\	.
4E\	.	4E\	4g/	.	4dd\	.	2GG/	.	8dd\	.
.	.	.	.	.	.	.	.	.	8cc#\J	.
4E\	.	4E\	4g/	.	4r	.	.	.	8b\L	.
.	.	.	.	.	.	.	.	.	8a\	.
4E\	.	4E\	4g/	.	4dd\	.	4E\	.	8g\	.
.	.	.	.	.	.	.	.	.	8f#\J	.
=44	=44	=44	=44	=44	=44	=44	=44	=44	=44	=44
4A\	6 4	4A\	4f#/	.	4dd\	.	4D/	.	4f#/	.
4AA/	5 3	4AA/	4e/	.	4cc#\	.	4C#/	-de	4e/	-de
2r	.	2r	4d/	.	4f#/	.	2r	.	2r	.
.	.	.	4c#/	.	4e/	.	.	.	.	.
=45	=45	=45	=45	=45	=45	=45	=45	=45	=45	=45
!	!	!	!	!	!	!	!	!LO:MO:mod=Cae-	!	!LO:MO:mod=Cae-
2A|>\	.	2A\	4ff#\	.	4aa\	.	4F#\	cae-	4a\	cae-
.	.	.	2ee\	.	2gg\	.	4E\	-lum	4g,</	-lum
2r	.	2r	.	.	.	.	4E\	gau-	4g/	gau-
.	.	.	4dd\	.	4ff#\	.	4D/	-de	4f#/	-de
=46	=46	=46	=46	=46	=46	=46	=46	=46	=46	=46
!	!	!	!	!	!	!	!	!	!	!LO:MO:mod=ter-
2A|>\	.	2A\	4ee\	.	4gg\	.	4E\	ter-	4g/	Ter-
.	.	.	2dd\	.	2ff#\	.	4D/	-ra	4f#/	-ra
2r	.	2r	.	.	.	.	4D/	plau-	4f#/	plau-
.	.	.	4cc#\	.	4ee\	.	4C#/	-de	4e/	-de
=47	=47	=47	=47	=47	=47	=47	=47	=47	=47	=47
2A|>\	.	2A\	4a/	.	4ff#\	.	4A\	ef-	4ff#\	ef-
.	.	.	2g/	.	2ee\	.	4G\	-fer	4ee\	-fer
2r	.	2r	.	.	.	.	4G\	di-	4ee\	di-
.	.	.	4f#/	.	4dd\	.	4F#\	-a	4dd\	-a
=48	=48	=48	=48	=48	=48	=48	=48	=48	=48	=48
2A|>\	.	2A\	4g/	.	4ee\	.	4G\	ma-	4ee\	ma-
.	.	.	2f#/	.	2dd\	.	4F#\	-gna-	4dd\	-gna-
2r	.	2r	.	.	.	.	4F#\	-li-	4dd\	-li-
.	.	.	4e/	.	4cc#\	.	4E\	-a	4cc#\	-a
=49	=49	=49	=49	=49	=49	=49	=49	=49	=49	=49
!	!	!	!	!	!	!	!L	!	!	!
!	!	!	!	!	!	!LO:DY:b	!LO:TX:a:mod=:t=1	!	!	!
2r	.	2r	4dd\	f	4ff#\	f	1r	.	2r	.
.	.	.	4cc#\	.	4ee\	.	.	.	.	.
2D/	.	2D\	2r	.	2r	.	.	.	4a\	gau-
.	.	.	.	.	.	.	.	.	4a\	-de-
=50	=50	=50	=50	=50	=50	=50	=50-	=50-	=50	=50
2G\	.	2G\	00r	.	00r	.	2r	.	4b\	-a-
.	.	.	.	.	.	.	.	.	8a\L	.
.	.	.	.	.	.	.	.	.	8g\J	.
2D/	.	2D\	.	.	.	.	4A\	gau-	4a\	.
.	.	.	.	.	.	.	4A\	-de-	8g/L	.
.	.	.	.	.	.	.	.	.	8f#/J	.
=51	=51	=51	=51	=51	=51	=51	=51	=51	=51	=51
2GG/	.	2GG/	.	.	.	.	4B\	-a-	4g/	.
.	.	.	.	.	.	.	8A\L	.	8f#/L	.
.	.	.	.	.	.	.	8G\J	.	8e/J	.
*	*	*	*	*	*	*	*custos:A	*	*	*
2r	.	2r	.	.	.	.	4A\	.	4f#/	.
.	.	.	.	.	.	.	8G\L	.	8e/L	.
.	.	.	.	.	.	.	8F#\J	.	8d/J	.
*	*	*	*	*	*	*	*	*	*custos:b	*
=52	=52	=52	=52	=52	=52	=52	=52	=52	=52	=52
!	!	!	!	!	!	!	!	!	!LO:LB:g=original	!
2G\	.	2G\	.	.	.	.	4G\	.	4b\	.
.	.	.	.	.	.	.	8F#\L	.	8a\L	.
.	.	.	.	.	.	.	8E\J	.	8g\J	.
2r	.	2r	.	.	.	.	4F#\	.	4a\	.
.	.	.	.	.	.	.	8E\L	.	8g/L	.
.	.	.	.	.	.	.	8D\J	.	8f#/J	.
=53	=53	=53	=53	=53	=53	=53	=53	=53	=53	=53
8G|>\L	.	8G\L	.	.	.	.	8G\L	.	8g\L	.
8A|>\	.	8A\	.	.	.	.	8A\	.	8a\	.
8B|>\	.	8B\	.	.	.	.	8B\	.	8b\	.
8c#|>\J	.	8c#\J	.	.	.	.	8c#\J	.	8cc#\J	.
4d|>\	.	4d\	.	.	.	.	4d\	.	4dd\	.
4D|>/	.	4D/	.	.	.	.	4d\	-mus	4dd\	-mus
=54	=54	=54	=54	=54	=54	=54	=54	=54	=54	=54
!	!	!	!	!	!	!	!	!	!	!LO:MO:mod=Cae-
4D/	.	4D/	00r	.	00r	.	2r	.	4a\	cae-
4r	.	4r	.	.	.	.	.	.	8b\L	-lum
.	.	.	.	.	.	.	.	.	8g\J	.
2r	.	2r	.	.	.	.	4r	.	4g/	gau-
.	.	.	.	.	.	.	8d\	gau-	4f#/	-de
.	.	.	.	.	.	.	8c#\	-de-	.	.
=55	=55	=55	=55	=55	=55	=55	=55	=55	=55	=55
!	!	!	!	!	!	!	!	!	!LO:TX:a:mod=:t=1	!
2D/	.	2D/	.	.	.	.	4d\	-a-	1r	.
.	.	.	.	.	.	.	8c#\L	.	.	.
.	.	.	.	.	.	.	8B\J	.	.	.
2r	.	2r	.	.	.	.	8A\L	.	.	.
.	.	.	.	.	.	.	8G\	.	.	.
.	.	.	.	.	.	.	8F#\	.	.	.
.	.	.	.	.	.	.	8E\J	.	.	.
=56	=56	=56	=56	=56	=56	=56	=56	=56	=56	=56
!	!	!	!	!	!	!	!	!	!	!LO:MO:mod=ter-
4D/	.	4D/	.	.	.	.	4D/	.	4a\	Ter-
4r	.	4r	.	.	.	.	4D/	-mus	8b\L	-ra
.	.	.	.	.	.	.	.	.	8g\J	.
2r	.	2r	.	.	.	.	4r	.	4g/	plau-
.	.	.	.	.	.	.	8d\	gau-	4f#/	-de
.	.	.	.	.	.	.	8c#\	-de-	.	.
=57	=57	=57	=57	=57	=57	=57	=57	=57	=57	=57
!	!	!	!	!	!	!	!	!	!LO:TX:a:mod=:t=2	!
2D/	.	2D/	.	.	.	.	4d\	-a-	0r	.
.	.	.	.	.	.	.	8c#\L	.	.	.
.	.	.	.	.	.	.	8B\J	.	.	.
2r	.	2r	.	.	.	.	8A\L	.	.	.
.	.	.	.	.	.	.	8G\	.	.	.
.	.	.	.	.	.	.	8F#\	.	.	.
.	.	.	.	.	.	.	8E\J	.	.	.
=58	=58	=58	=58	=58	=58	=58	=58	=58	=58	=58
2D/	.	2D/	2r	.	2r	.	4D/	.	.	.
.	.	.	.	.	.	.	4D/	-mus	.	.
2r	.	2r	4dd\	.	4ff#\	.	2r	.	.	.
.	.	.	4cc#\	.	4ee\	.	.	.	.	.
=59	=59	=59	=59	=59	=59	=59	=59	=59	=59	=59
!	!	!	!	!LO:MO:mod=!null:null	!	!	!	!	!	!
!	!	!	!	!LO:DY:a	!	!LO:DY:b	!	!LO:MO:mod=Cae-	!	!LO:MO:mod=Cae-
2AA|>/	.	2AA/	4A/	p	4a/	p	4AA/	cae-	4a\	cae-
.	.	.	8B/L	.	8b/L	.	(8BB/L	-lum	8b\L	-lum
.	.	.	8c#/J	.	8cc#/J	.	8C#/J)	.	8cc#\J	.
2r	.	2r	4d/	.	4dd\	.	4D/	gau-	4dd\	gau-
.	.	.	[4g/	.	[4gg\	.	4G\	-de	4gg\	-de
=60	=60	=60	=60	=60	=60	=60	=60	=60	=60	=60
!LO:LB:g=original	!	!LO:LB:g=original	!	!	!	!	!	!	!	!LO:MO:mod=ter-
2AA|>/	.	2AA/	4g/]	.	4gg\]	.	4G\	ter-	4gg\	Ter-
.	.	.	4f#/	.	2ff#\	.	4F#\	-ra	4ff#\	-ra
*	*	*	*custos:dd	*	*	*	*	*	*	*
!	!	!	!LO:LB:g=original	!	!	!	!	!	!	!
2r	.	2r	4dd\	.	.	.	4F#\	plau-	4ff#\	plau-
.	.	.	4cc#\	.	4ee\	.	4E\	-de	4ee\	-de
*	*	*	*	*	*	*	*custos:AA	*	*	*
=61	=61	=61	=61	=61	=61	=61	=61	=61	=61	=61
!	!	!	!	!	!	!	!LO:LB:g=original	!	!	!
2AA|>/	.	2AA/	4A/	.	4a/	.	4AA/	ef-	4a\	ef-
.	.	.	8B/L	.	8b/L	.	(8BB/L	-fer	(8b\L	-fer
.	.	.	8c#/J	.	8cc#/J	.	8C#/J)	.	8cc#\J)	.
2r	.	2r	4d/	.	4dd\	.	4D/	di-	4dd\	di-
.	.	.	[4g/	.	[4gg\	.	4G\	-a	4gg\	-a
=62	=62	=62	=62	=62	=62	=62	=62	=62	=62	=62
2AA|>/	.	2AA/	4g/]	.	4gg\]	.	4G\	ma-	4gg\	ma-
.	.	.	4f#/	.	2ff#\	.	4F#\	-gna-	4ff#\	-gna-
2r	.	2r	4dd\	.	.	.	4F#\	-li-	4ff#\	-li-
.	.	.	4cc#\	.	4ee\	.	4E\	-a	4ee\	-a,
=63	=63	=63	=63	=63	=63	=63	=63	=63	=63	=63
!	!	!	!	!	!	!LO:DY:b	!	!	!LO:LB:g=original	!
2A|>\	.	2A\	4ff#\	f	4aa\	f	00r	.	00r	.
.	.	.	2ee\	.	2gg\	.	.	.	.	.
2r	.	2r	.	.	.	.	.	.	.	.
.	.	.	4dd\	.	4ff#\	.	.	.	.	.
*	*	*	*	*	*custos:gg	*	*	*	*	*
=64	=64	=64	=64	=64	=64	=64	=64	=64	=64	=64
2A|>\	.	2A\	4ee\	.	4gg\	.	.	.	.	.
.	.	.	2dd\	.	2ff#\	.	.	.	.	.
2r	.	2r	.	.	.	.	.	.	.	.
.	.	.	4cc#\	.	4ee\	.	.	.	.	.
=65	=65	=65	=65	=65	=65	=65	=65	=65	=65	=65
!	!	!	!	!LO:MO:mod=!null:null	!	!	!	!	!	!
!	!	!	!	!LO:DY:a	!	!LO:DY:b	!	!	!	!
2A|>\	.	2A\	4f#/	p	4a/	p	.	.	.	.
.	.	.	2e/	.	2g/	.	.	.	.	.
2r	.	2r	.	.	.	.	.	.	.	.
.	.	.	4d/	.	4f#/	.	.	.	.	.
=66	=66	=66	=66	=66	=66	=66	=66	=66	=66	=66
2A|>\	.	2A\	4e/	.	4g/	.	.	.	.	.
.	.	.	2d/	.	2f#/	.	.	.	.	.
2r	.	2r	.	.	.	.	.	.	.	.
.	.	.	4c#/	.	4e/	.	.	.	.	.
=67	=67	=67	=67	=67	=67	=67	=67	=67	=67	=67
!	!	!	!	!	!	!	!	!LO:MO:mod=Cae-	!	!
00r	.	00r	4A/	.	4a/	.	4AA/	cae-	1a	gau-
.	.	.	8B/L	.	8b\L	.	(8BB/L	-lum	.	.
.	.	.	8c#/J	.	8cc#\J	.	8C#/J)	.	.	.
.	.	.	4d/	.	4dd\	.	4D/	gau-	.	.
.	.	.	[4g/	.	[<4gg\	.	4G\	-de	.	.
=68	=68	=68	=68	=68	=68	=68	=68	=68	=68	=68
.	.	.	4g/]	.	4gg\]	.	4G\	ter-	1a	-de
.	.	.	4f#/	.	2ff#\	.	4F#\	-ra	.	.
.	.	.	4dd\	.	.	.	4F#\	plau-	.	.
.	.	.	4cc#\	.	4ee\	.	4E\	-de	.	.
=69	=69	=69	=69	=69	=69	=69	=69	=69	=69	=69
.	.	.	4A/	.	4a/	.	1AA	gau-	4a\	ef-
.	.	.	8B/L	.	8b\L	.	.	.	(8b\L	-fer
.	.	.	8c#/J	.	8cc#\J	.	.	.	8cc#\J)	.
.	.	.	4d/	.	4dd\	.	.	.	4dd\	di-
.	.	.	[4g/	.	[<4gg\	.	.	.	4gg\	-a
=70	=70	=70	=70	=70	=70	=70	=70	=70	=70	=70
.	.	.	4g/]	.	4gg\]	.	1AA	-de	4gg\	ma-
.	.	.	4f#/	.	2ff#\	.	.	.	4ff#\	-gna-
.	.	.	4dd\	.	.	.	.	.	4ff#\	-li-
.	.	.	4cc#\	.	4ee\	.	.	.	4ee\	-a
=71	=71	=71	=71	=71	=71	=71	=71	=71	=71	=71
!	!	!	!	!	!	!	!	!	!LO:TX:a:mod=:t=1	!
4A\	.	4A\	4cc#\	.	4ee\	.	4E\	ter-	1r	.
4A\	.	4A\	4cc#\	.	4ee\	.	2C#/	.	.	.
4A\	.	4A\	4cc#\	.	4ee\	.	.	.	.	.
4A\	.	4A\	4cc#\	.	4ee\	.	4A\	-ra	.	.
=72	=72	=72	=72	=72	=72	=72	=72	=72	=72	=72
!	!	!	!	!	!	!	!	!	!	!LO:MO:mod=ter-
4D/	x 7	4D/	4cc#\	.	4ff#\	.	8F#\L	plau-	4cc#\	Ter-
.	.	.	.	.	.	.	8G\	.	.	.
4d\	.	4d\	4cc#\	.	4ff#\	.	8A\	.	2a\	.
.	.	.	.	.	.	.	8G\J	.	.	.
4r	.	4r	4r	.	4ff#\	.	8F#\L	.	.	.
.	.	.	.	.	.	.	8E\	.	.	.
4D/	.	4D/	4cc#\	.	4ff#\	.	8D\	.	4ff#\	-ra
.	.	.	.	.	.	.	8C#\J	.	.	.
=73	=73	=73	=73	=73	=73	=73	=73	=73	=73	=73
4G\	x 7	4G\	4b/	.	4ff#\	.	4D/	.	8dd\L	plau-
.	.	.	.	.	.	.	.	.	8ee\	.
4G\	.	4G\	4b/	.	4ff#\	.	2BB/	.	8ff#\	.
.	.	.	.	.	.	.	.	.	8ee\J	.
4G\	.	4G\	4b/	.	4r	.	.	.	8dd\L	.
.	.	.	.	.	.	.	.	.	8cc#\	.
4G\	.	4G\	4b/	.	4ff#\	.	4G\	.	8b\	.
.	.	.	.	.	.	.	.	.	8a\J	.
=74	=74	=74	=74	=74	=74	=74	=74	=74	=74	=74
4C#/	x 7	4C#/	4b/	.	4ee\	.	8E\L	.	4b\	.
.	.	.	.	.	.	.	8F#\	.	.	.
4c#\	.	4c#\	4b/	.	4ee\	.	8G\	.	2g/	.
.	.	.	.	.	.	.	8F#\J	.	.	.
4r	.	4r	4r	.	4ee\	.	8E\L	.	.	.
.	.	.	.	.	.	.	8D\	.	.	.
4C#/	.	4C#/	4b/	.	4ee\	.	8C#\	.	4ee\	.
.	.	.	.	.	.	.	8BB\J	.	.	.
=75	=75	=75	=75	=75	=75	=75	=75	=75	=75	=75
4F#\	x 7	4F#\	4a/	.	4ee\	.	4C#/	.	8cc#\L	.
.	.	.	.	.	.	.	.	.	8dd\	.
4F#\	.	4F#\	4a/	.	4ee\	.	2AA/	.	8ee\	.
.	.	.	.	.	.	.	.	.	8dd\J	.
4F#\	.	4F#\	4a/	.	4r	.	.	.	8cc#\L	.
.	.	.	.	.	.	.	.	.	8b\	.
4F#\	.	4F#\	4a/	.	4ee\	.	4F#\	.	8a\	.
.	.	.	.	.	.	.	.	.	8g\J	.
*	*	*	*	*	*	*	*custos:D	*	*	*
=76	=76	=76	=76	=76	=76	=76	=76	=76	=76	=76
!	!	!	!LO:LB:g=original	!	!	!	!LO:LB:g=original	!	!	!
4BB/	x 7	4BB/	4a/	.	4dd\	.	8D\L	.	4a\	.
.	.	.	.	.	.	.	8E\	.	.	.
4B\	.	4B\	4a/	.	4dd\	.	8F#\	.	2f#/	.
.	.	.	.	.	.	.	8E\J	.	.	.
4r	.	4r	4r	.	4dd\	.	8D/L	.	.	.
.	.	.	.	.	.	.	8C#/	.	.	.
4BB/	.	4BB/	4a/	.	4dd\	.	8BB/	.	4dd\	.
.	.	.	.	.	.	.	8AA/J	.	.	.
=77	=77	=77	=77	=77	=77	=77	=77	=77	=77	=77
4E\	x 7	4E\	4g/	.	4dd\	.	4BB/	.	8b\L	.
.	.	.	.	.	.	.	.	.	8cc#\	.
4E\	.	4E\	4g/	.	4dd\	.	2GG/	.	8dd\	.
.	.	.	.	.	.	.	.	.	8cc#\J	.
4E\	.	4E\	4g/	.	4r	.	.	.	8b\L	.
.	.	.	.	.	.	.	.	.	8a\	.
4E\	.	4E\	4g/	.	4dd\	.	4E\	.	8g\	.
.	.	.	.	.	.	.	.	.	8f#\J	.
=78	=78	=78	=78	=78	=78	=78	=78	=78	=78	=78
4A\	6 4	4A\	4f#/	.	4dd\	.	4D/	.	4f#/	.
4AA/	5 3	4AA/	4e/	.	4cc#\	.	4C#/	-de	4e/	-de
!	!	!	!	!LO:MO:mod=!null:null	!	!LO:MO:mod=!null:null	!	!	!	!
!	!	!	!	!LO:DY:a	!	!LO:DY:a	!	!	!	!
2r	.	2r	4d/	f	4f#/	f	2r	.	2r	.
.	.	.	4c#/	.	4e/	.	.	.	.	.
=79	=79	=79	=79	=79	=79	=79	=79	=79	=79	=79
!	!	!	!	!	!LO:TX:a:mod=:t=3.	!	!	!	!	!
4F#\	x 6	4F#\	00r	.	0r	.	4F#\	gau-	4a\	gau-
4D\	.	4D\	.	.	.	.	4D\	.	8g/L	.
.	.	.	.	.	.	.	.	.	8f#/J	.
4G\	.	4G\	.	.	.	.	4G\	.	4b\	.
4E\	.	4E\	.	.	.	.	4E\	.	8a\L	.
.	.	.	.	.	.	.	.	.	8g\J	.
=80	=80	=80	=80	=80	=80	=80	=80	=80	=80	=80
4A\	.	4A\	.	.	.	.	4A\	.	4cc#\	.
4D/	.	4D/	.	.	.	.	4D\	-de	4dd\	-de
*	*	*	*	*	*	*	*	*	*custos:ff	*
!	!	!	!	!	!	!	!	!	!LO:LB:g=original	!
2r	.	2r	.	.	.	.	4r	.	4r	.
.	.	.	.	.	.	.	4d\	plau-	4ff#\	plau-
*custos:A	*	*	*	*	*	*	*	*	*	*
=81	=81	=81	=81	=81	=81	=81	=81	=81	=81	=81
!LO:LB:g=original	!	!	!	!	!	!	!	!	!	!
2A.\	x 4	2A\	.	.	1r	.	2A\	.	2.ee\	.
.	x 3	2AA/	.	.	.	.	2AA/	.	.	.
4AA/	.	.	.	.	.	.	.	.	4dd\	.
*	*	*custos:D	*	*	*	*	*	*	*	*
=82	=82	=82	=82	=82	=82	=82	=82	=82	=82	=82
!	!	!LO:LB:g=original	!	!	!	!	!	!	!	!
2D/	.	2D/	.	.	4dd\	.	2D/	-de	2dd\	-de
.	.	.	.	.	4ee\	.	.	.	.	.
2r	.	2r	.	.	4ff#\	.	2r	.	2r	.
.	.	.	.	.	4gg\	.	.	.	.	.
=83	=83	=83	=83	=83	=83	=83	=83	=83	=83	=83
2C#/	x 6	2C#/	0r	.	2aa\	.	00r	.	00r	.
2BB/	6\ 3	2BB/	.	.	2ddd\	.	.	.	.	.
=84	=84	=84	=84	=84	=84	=84	=84	=84	=84	=84
2AA/	.	2AA/	.	.	2ccc#\	.	.	.	.	.
2r	.	2r	.	.	2aa\	.	.	.	.	.
=85	=85	=85	=85	=85	=85	=85	=85	=85	=85	=85
!	!	!	!	!	!LO:LB:g=original	!	!	!	!	!
!	!	!	!	!	!LO:TX:a:mod=:t=2	!	!	!	!	!
2d|>\	.	2d\	2dd\	.	0r	.	.	.	.	.
2A|>\	.	2A\	2a/	.	.	.	.	.	.	.
=86	=86	=86	=86	=86	=86	=86	=86	=86	=86	=86
2F#|>\	.	2F#\	2f#/	.	.	.	.	.	.	.
2D|>/	.	2D/	2d/	.	.	.	.	.	.	.
=87	=87	=87	=87	=87	=87	=87	=87	=87	=87	=87
2AA|>/	.	2AA/	4A/	.	4a/	.	00r	.	00r	.
.	.	.	8B/L	.	8b\L	.	.	.	.	.
.	.	.	8c#/J	.	8cc#\J	.	.	.	.	.
2r	.	2r	4d/	.	4dd\	.	.	.	.	.
.	.	.	[4g/	.	[<4gg\	.	.	.	.	.
=88	=88	=88	=88	=88	=88	=88	=88	=88	=88	=88
2AA|>/	.	2AA/	4g/]	.	4gg\]	.	.	.	.	.
.	.	.	4f#/	.	2ff#\	.	.	.	.	.
2r	.	2r	4dd\	.	.	.	.	.	.	.
.	.	.	4cc#\	.	4ee\	.	.	.	.	.
=89	=89	=89	=89	=89	=89	=89	=89	=89	=89	=89
2AA|>/	.	2AA/	4A/	.	4a/	.	.	.	.	.
.	.	.	8B/L	.	8b\L	.	.	.	.	.
.	.	.	8c#/J	.	8cc#\J	.	.	.	.	.
2r	.	2r	4d/	.	4dd\	.	.	.	.	.
.	.	.	[4g/	.	[4gg\	.	.	.	.	.
=90	=90	=90	=90	=90	=90	=90	=90	=90	=90	=90
2AA|>/	.	2AA/	4g/]	.	4gg\]	.	.	.	.	.
.	.	.	4f#/	.	2ff#\	.	.	.	.	.
2r	.	2r	4dd\	.	.	.	.	.	.	.
.	.	.	4cc#\	.	4ee\	.	.	.	.	.
=91	=91	=91	=91	=91	=91	=91	=91	=91	=91	=91
2D\	.	2D\	2r	.	2r	.	0r	.	0r	.
2r	.	2r	2ddd\	.	2ddd\	.	.	.	.	.
=92	=92	=92	=92	=92	=92	=92	=92	=92	=92	=92
2A\	6 4	2A\	2d/	.	2f#/	.	.	.	.	.
2AA/	5 3	2AA/	2c#/	.	2e/	.	.	.	.	.
=93	=93	=93	=93	=93	=93	=93	=93	=93	=93	=93
!LO:TX:b:mod=:t=finis	!	!LO:TX:b:mod=:t=finis:i	!LO:TX:b:mod=:t=finis	!	!	!	!LO:TX:b:mod=:t=finis	!	!LO:TX:b:mod=:t=finis	!
2D.;/	.	2D.;/	2d;/	.	2d;/	.	1r;	.	1r;	.
!	!	!	!	!	!LO:TX:b:mod=:t=finis	!	!	!	!	!
.	.	.	2r	.	2r	.	.	.	.	.
4C#/	.	4C#/	.	.	.	.	.	.	.	.
!!LO:TX:a:B:rj:t=:mod=Fine
!LO:MO:mod==94||	!LO:MO:mod==94||	!LO:MO:mod==94||	!	!	!	!	!	!	!	!
=94	=94	=94	=94||	=94||	=94||	=94||	=94||	=94||	=94||	=94||
!	!	!	!LO:TX:a:mod=:t=2	!	!LO:TX:a:mod=:t=2	!	!	!LO:MO:mod=Vir-	!LO:TX:a:mod=:t=1	!
2BB/	.	2BB/	0r	.	0r	.	8F#\L	vir-	1r	.
.	.	.	.	.	.	.	8E\	.	.	.
.	.	.	.	.	.	.	8D\	.	.	.
.	.	.	.	.	.	.	8C#\J	.	.	.
4r	.	4r	.	.	.	.	4BB/	.	.	.
4AA#X/	7- 5	4AA#X/	.	.	.	.	4G\	-tus	.	.
=95	=95	=95	=95	=95	=95	=95	=95	=95	=95	=95
4BB/	.	4BB/	.	.	.	.	4F#\	ia-	2r	.
4F#\	7 #	4F#\	.	.	.	.	4E\	-cet	.	.
2r	.	2r	.	.	.	.	2r	.	4dd\	Ver-
.	.	.	.	.	.	.	.	.	4cc#\	-bum
=96	=96	=96	=96	=96	=96	=96	=96	=96	=96	=96
2r	.	2r	2r	.	2r	.	2r	.	4b\	ta-
.	.	.	.	.	.	.	.	.	4a#X\	-cet
!	!	!	!	!	!	!LO:DY:b	!	!	!	!
4BB/	.	4BB/	4b/	p	4dd\	p	4B\	ta-	2r	.
4F#\	x #	4F#\	4a#X/	.	4cc#\	.	4F#\	-cet	.	.
=97	=97	=97	=97	=97	=97	=97	=97	=97	=97	=97
!	!	!	!LO:TX:a:mod=:t=1	!	!	!	!	!	!	!
1BB	.	1BB	1r	.	4ff#\	f	00r	.	00r	.
.	.	.	.	.	4dd\	.	.	.	.	.
!	!	!	!	!	!	!	!	!	!	!
.	.	.	.	.	4d/	.	.	.	.	.
.	.	.	.	.	4ff#\	.	.	.	.	.
=98	=98	=98	=98	=98	=98	=98	=98	=98	=98	=98
1E	x 7	1E	4bb\	f	1gg	.	.	.	.	.
.	.	.	4dd\	.	.	.	.	.	.	.
.	.	.	4b/	.	.	.	.	.	.	.
.	.	.	4ddd\	.	.	.	.	.	.	.
*custos:AA	*	*	*	*	*	*	*	*	*	*
=99	=99	=99	=99	=99	=99	=99	=99	=99	=99	=99
!LO:LB:g=original	!	!	!LO:LB:g=original	!	!	!	!	!	!	!
1AA	x 7	1AA	1ccc#	.	4ee\	.	.	.	.	.
.	.	.	.	.	4g/	.	.	.	.	.
.	.	.	.	.	4e/	.	.	.	.	.
.	.	.	.	.	4gg\	.	.	.	.	.
=100	=100	=100	=100	=100	=100	=100	=100	=100	=100	=100
1D	x 7	1D	4aa\	.	1ff#	.	.	.	.	.
.	.	.	4cc#\	.	.	.	.	.	.	.
.	.	.	4a/	.	.	.	.	.	.	.
.	.	.	4ccc#\	.	.	.	.	.	.	.
=101	=101	=101	=101	=101	=101	=101	=101	=101	=101	=101
1GG	x 7	1GG	1bb	.	4dd\	.	00r	.	00r	.
.	.	.	.	.	4f#/	.	.	.	.	.
.	.	.	.	.	4d/	.	.	.	.	.
.	.	.	.	.	4ff#\	.	.	.	.	.
=102	=102	=102	=102	=102	=102	=102	=102	=102	=102	=102
1C#	x 7	1C#	4gg\	.	1ee	.	.	.	.	.
.	.	.	4b/	.	.	.	.	.	.	.
.	.	.	4g/	.	.	.	.	.	.	.
.	.	.	4bb\	.	.	.	.	.	.	.
*	*	*custos:FF	*	*	*	*	*	*	*	*
=103	=103	=103	=103	=103	=103	=103	=103	=103	=103	=103
!	!	!LO:LB:g=original	!	!	!	!	!	!	!	!
1FF#	7 #	1FF#	1aa#X	.	4cc#\	.	.	.	.	.
.	.	.	.	.	4e/	.	.	.	.	.
.	.	.	.	.	4c#/	.	.	.	.	.
.	.	.	.	.	[4ee\	.	.	.	.	.
=104	=104	=104	=104	=104	=104	=104	=104	=104	=104	=104
2F#\	7 #	2F#\	4cc#\	.	4ee\]	.	.	.	.	.
.	6 4	.	2b/	.	2dd\	.	.	.	.	.
2r	.	2r	.	.	.	.	.	.	.	.
.	.	.	4a#X/	.	4cc#\	.	.	.	.	.
=105	=105	=105	=105	=105	=105	=105	=105	=105	=105	=105
2F#\	6 4	2F#\	2b/	.	2dd\	.	1r	.	0r	.
2FF#/	x #	2FF#/	2a#X/	.	2cc#\	.	.	.	.	.
*	*	*	*	*	*custos:b	*	*	*	*	*
=106	=106	=106	=106	=106	=106	=106	=106	=106	=106	=106
!	!	!	!	!	!LO:LB:g=original	!	!	!LO:MO:mod=Vir-	!	!
2BB/	.	2BB/	2b/	.	2b/	.	8F#\L	vir-	.	.
.	.	.	.	.	.	.	8E\	.	.	.
.	.	.	.	.	.	.	8D\	.	.	.
.	.	.	.	.	.	.	8C#\J	.	.	.
4r	.	4r	2r	.	2r	.	4BB/	.	.	.
4AA#X/	7 5	4AA#X/	.	.	.	.	4G\	-tus	.	.
=107	=107	=107	=107	=107	=107	=107	=107	=107	=107	=107
!	!	!	!LO:TX:a:mod=:t=1	!	!LO:TX:a:mod=:t=1	!	!	!	!	!
4BB/	.	4BB/	1r	.	1r	.	4F#\	ia-	2r	.
4F#\	7 #	4F#\	.	.	.	.	4E\	-cet	.	.
2r	.	2r	.	.	.	.	2r	.	4dd\	Ver-
.	.	.	.	.	.	.	.	.	4cc#\	-bum
*	*	*	*	*	*	*	*custos:B	*	*	*
=108	=108	=108	=108	=108	=108-	=108-	=108	=108	=108	=108
!	!	!	!	!	!	!	!LO:LB:g=original	!	!	!
2r	.	2r	2r	.	2r	.	2r	.	4b\	ta-
.	.	.	.	.	.	.	.	.	4a#X\	-cet
!	!	!	!	!	!	!LO:DY:b	!	!	!	!
4BB/	.	4BB/	4b/	p	4dd\	p	4B\	ta-	2r	.
4F#\	x #	4F#\	4a#X/	.	4cc#\	.	4F#\	-cet	.	.
=109	=109	=109	=109	=109	=109	=109	=109	=109	=109	=109
!	!	!	!	!	!	!	!LO:TX:a:mod=:t=1	!	!	!
1B	.	1B	4dd\	.	4ff#\	.	1r	.	4ff#\	Vir-
.	.	.	4dd\	.	4ff#\	.	.	.	4b\	-tus
.	.	.	4dd\	.	4ff#\	.	.	.	4d/	ia-
.	.	.	4dd\	.	4ff#\	.	.	.	4ff#\	-cet
=110	=110	=110	=110	=110	=110	=110	=110	=110	=110	=110
!	!	!	!	!	!	!	!	!LO:MO:mod=Vir-	!	!
1E	x 7	1E	1dd	.	1gg	.	4B\	vir-	1gg	Ver-
.	.	.	.	.	.	.	4D/	-tus	.	.
.	.	.	.	.	.	.	4BB/	ia-	.	.
.	.	.	.	.	.	.	4d\	-cet	.	.
=111	=111	=111	=111	=111	=111	=111	=111	=111	=111	=111
1A	x 7	1A	4cc#\	.	4gg\	.	1c#	Ver-	4ee\	.
.	.	.	4cc#\	.	4gg\	.	.	.	4g,</	-bum
!	!	!	!	!	!	!	!	!	!	!LO:MO:mod=ta-
.	.	.	4cc#\	.	4gg\	.	.	.	4e/	Ta-
.	.	.	4cc#\	.	4gg\	.	.	.	4gg\	-cet
=112	=112	=112	=112	=112	=112	=112	=112	=112	=112	=112
1D	x 7	1D	1cc#	.	1ff#	.	4A\	.	1ff#	pa-
.	.	.	.	.	.	.	4C#/	-bum	.	.
.	.	.	.	.	.	.	4AA/	ta-	.	.
.	.	.	.	.	.	.	4c#\	-cet	.	.
*	*	*	*	*	*	*	*	*	*custos:dd	*
=113	=113	=113	=113	=113	=113	=113	=113	=113	=113	=113
!	!	!	!	!	!	!	!	!	!LO:LB:g=original	!
1G	x 7	1G	4b/	.	4ff#\	.	1B	pa-	4dd\	.
.	.	.	4b/	.	4ff#\	.	.	.	4f#/	-stor
.	.	.	4b/	.	4ff#\	.	.	.	4d/	pas-
.	.	.	4b/	.	4ff#\	.	.	.	4ff#\	-tus
=114	=114	=114	=114	=114	=114	=114	=114	=114	=114	=114
1C#	x 7	1C#	1b	.	1ee	.	4G\	.	1ee	in-
.	.	.	.	.	.	.	4BB/	-stor	.	.
.	.	.	.	.	.	.	4GG/	pas-	.	.
.	.	.	.	.	.	.	4B\	.	.	.
=115	=115	=115	=115	=115	=115	=115	=115	=115	=115	=115
1F#	7 #	1F#	4cc#\	.	4ee\	.	1A#X	-tus	4cc#\	.
.	.	.	4cc#\	.	4ee\	.	.	.	4e,/	-fans
.	.	.	4cc#\	.	4ee\	.	.	.	4c#/	vas-
.	.	.	4cc#\	.	4ee\	.	.	.	4ee\	-tus
=116	=116	=116	=116	=116	=116	=116	=116	=116	=116	=116
!	!	!	!LO:TX:a:mod=:t=1	!	!LO:TX:a:mod=:t=1	!	!	!	!	!
2FF#/	7 #	2F#\	1r	.	1r	.	4c#\	in-	4ee\	in-
.	.	.	.	.	.	.	4B\	-fans	4dd\	-fans
2r	.	2r	.	.	.	.	4B\	va-	4dd\	vas-
.	.	.	.	.	.	.	4A#X\	-stus	4cc#\	-tus
=117	=117	=117	=117	=117	=117	=117	=117	=117	=117	=117
!	!	!	!	!	!	!	!LO:TX:a:mod=:t=1	!	!LO:TX:a:mod=:t=1	!
2FF#/	7 #	2FF#/	4cc#\	.	4ee\	.	1r	.	1r	.
.	.	.	2b/	.	2dd\	.	.	.	.	.
2r	.	2r	.	.	.	.	.	.	.	.
.	.	.	4a#X/	.	4cc#\	.	.	.	.	.
=118	=118	=118	=118	=118	=118	=118	=118	=118	=118	=118
2F#|>\	.	2F#\	4dd\	.	4ff#\	.	4d\	Vir-	4ff#\	Vir-
.	.	.	2cc#\	.	2ee\	.	4c#\	-tus	4ee\	-tus
2r	.	2r	.	.	.	.	4c#\	ia-	4ee\	ia-
.	.	.	4b\	.	4dd\	.	4B\	-cet	4dd\	-cet
*	*	*	*custos:cc	*	*	*	*	*	*	*
=119	=119	=119	=119	=119	=119	=119	=119	=119	=119	=119
!	!	!	!LO:LB:g=original	!	!	!	!	!	!	!
2F#|>\	.	2F#\	4cc#\	.	4ee\	.	4c#\	Ver-	4ee\	Ver-
.	.	.	2b/	.	2dd\	.	4B\	-bum	4dd\	-bum
2r	.	2r	.	.	.	.	4B\	ta-	4dd\	ta-
.	.	.	4a#X/	.	4cc#\	.	4A#X\	-cet	4cc#\	-cet
=120	=120	=120	=120	=120	=120	=120	=120	=120	=120	=120
!LO:LB:g=original	!	!	!	!	!	!	!	!	!	!
2F#|>\	.	2F#\	4dd\	.	4ff#\	.	4d\	pa-	4ff#\	pa-
.	.	.	2cc#\	.	2ee\	.	4c#\	-stor	4ee\	-stor
2r	.	2r	.	.	.	.	4c#\	pas-	4ee\	pas-
.	.	.	4b\	.	4dd\	.	4B\	-tus	4dd\	-tus
*	*	*	*	*	*	*	*custos:B	*	*	*
=121	=121	=121	=121	=121	=121	=121	=121	=121	=121	=121
!	!	!	!	!	!	!	!LO:LB:g=original	!	!	!
2F#|>\	.	2F#\	4cc#\	.	4ee\	.	4c#\	in-	4ee\	in-
.	.	.	2b/	.	2dd\	.	4B\	-fans	4dd\	-fans
2r	.	2r	.	.	.	.	4B\	vas-	4dd\	vas-
.	.	.	4a#X/	.	4cc#\	.	4A#X\	-tus	4cc#\	-tus
=122	=122	=122	=122	=122	=122	=122	=122	=122	=122	=122
!	!	!	!LO:SIC:s=4a#/:v	!	!	!LO:DY:b	!LO:TX:a:mod=:t=1	!	!LO:TX:a:mod=:t=1	!
2FF#/	x #	2FF#/	4a/	f	4cc#\	f	1r	.	1r	.
.	.	.	4cc#\	.	4ee\	.	.	.	.	.
2r	.	2r	4b/	.	4dd\	.	.	.	.	.
.	.	.	4a#X/	.	4cc#\	.	.	.	.	.
=123	=123	=123	=123	=123	=123	=123	=123-	=123-	=123	=123
!	!	!	!	!	!	!LO:DY:b	!	!	!LO:LB:g=original	!
2BB/	.	2BB/	2b/	p	2b/	p	2r	.	4dd\	vir-
.	.	.	.	.	.	.	.	.	4b\	-tus
2r	.	2r	2r	.	2r	.	4B\	ia-	2r	.
.	.	.	.	.	.	.	4BB/	-cet	.	.
*	*	*	*	*	*custos:b	*	*	*	*	*
!	!	!	!	!	!	!	!	!	!LO:MO:mod==124	!
=124	=124	=124	=124	=124	=124	=124	=124	=124	=124-	=124-
!	!	!	!	!	!	!LO:MO:mod=!null:null	!	!	!	!
!	!	!	!	!	!LO:LB:g=original	!LO:DY:a	!LO:TX:a:mod=:t=1	!	!LO:TX:a:mod=:t=1	!
2E\	x #	2E\	4g#X/	f	4b\	f	1r	.	1r	.
.	.	.	4b/	.	4dd\	.	.	.	.	.
2r	.	2r	4a/	.	4cc#\	.	.	.	.	.
.	.	.	4g#X/	.	4b\	.	.	.	.	.
*	*	*custos:AA	*	*	*	*	*	*	*	*
=125	=125	=125	=125	=125	=125	=125	=125-	=125-	=125	=125
!	!	!LO:LB:g=original	!	!	!	!LO:DY:b	!	!	!	!
2AA/	.	2AA/	2a/	p	2cc#\	p	2r	.	4cc#\	Ver-
.	.	.	.	.	.	.	.	.	4a\	-bum
2r	.	2r	2r	.	2r	.	4A\	ta-	2r	.
.	.	.	.	.	.	.	4AA/	-cet	.	.
=126	=126	=126	=126	=126	=126	=126	=126	=126	=126	=126
!	!	!LO:TX:a:mod=:t=9.	!	!	!LO:TX:a:mod=:t=9.	!	!LO:TX:a:mod=:t=1	!	!	!
00r	.	00r	00r	.	00r	.	1r	.	2ff#\	Ver-
.	.	.	.	.	.	.	.	.	2ff#\	-bum
=127	=127	=127	=127	=127	=127	=127	=127	=127	=127	=127
.	.	.	.	.	.	.	(4F#\	Ver-	1ff#	ta-
.	.	.	.	.	.	.	4G#X\)	.	.	.
.	.	.	.	.	.	.	(4A\	-bum	.	.
.	.	.	.	.	.	.	4F#\)	.	.	.
=128	=128	=128	=128	=128	=128	=128	=128	=128	=128	=128
.	.	.	.	.	.	.	4c#\	ta-	2ee#X\	.
.	.	.	.	.	.	.	4B\	.	.	.
.	.	.	.	.	.	.	4A\	.	1ff#	.
.	.	.	.	.	.	.	4F#\	.	.	.
!	!	!	!	!	!	!	!	!	!LO:MO:mod==129	!
=129	=129	=129	=129	=129	=129	=129	=129	=129	=129-	=129-
.	.	.	.	.	.	.	4B\	.	.	.
.	.	.	.	.	.	.	4G#X\	.	.	.
.	.	.	.	.	.	.	4c#\	.	2ee#X\	.
.	.	.	.	.	.	.	4C#/	.	.	.
=130	=130	=130	=130	=130	=130	=130	=130	=130	=130	=130
00r	.	00r	00r	.	00r	.	2F#\	-cet	2ff#\	-cet
!	!	!	!	!	!	!	!	!	!	!LO:MO:mod=vir-
.	.	.	.	.	.	.	2r	.	4ff#\	Vir-
.	.	.	.	.	.	.	.	.	4cc#\	-tus
=131	=131	=131	=131	=131	=131	=131	=131	=131	=131	=131
.	.	.	.	.	.	.	4A\	ia-	2r	.
.	.	.	.	.	.	.	4F#\	-cet	.	.
.	.	.	.	.	.	.	2r	.	4cc#\	Ver-
.	.	.	.	.	.	.	.	.	4a\	-bum
=132	=132	=132	=132	=132	=132	=132	=132	=132	=132	=132
.	.	.	.	.	.	.	4A\	ta-	2r	.
.	.	.	.	.	.	.	4F#\	-cet	.	.
.	.	.	.	.	.	.	2r	.	4ff#\	Ver-
.	.	.	.	.	.	.	.	.	4f#/	-bum
=133	=133	=133	=133	=133	=133	=133	=133	=133	=133	=133
.	.	.	.	.	.	.	4F#\	ta-	2r	.
.	.	.	.	.	.	.	4FF#/	-cet	.	.
.	.	.	.	.	.	.	2r	.	4ff#\	ta-
.	.	.	.	.	.	.	.	.	4f#/	-cet.
=134	=134	=134	=134	=134	=134	=134	=134	=134	=134	=134
!LO:TX:a:mod=:t=Da Capo	!	!LO:TX:a:mod=:t=Da Capo	!LO:TX:a:mod=:t=Da Capo	!	!LO:TX:a:mod=:t=Da Capo	!	!LO:TX:mod=:t=Da Capo	!	!LO:TX:a:mod=:t=Da Capo	!
!	!	!	!	!	!	!	!	!	!LO:TX:a:mod=:t=1	!
1r	.	1r	1r	.	1r	.	4F#\	ta-	1r	.
.	.	.	.	.	.	.	4FF#/	-cet	.	.
.	.	.	.	.	.	.	2r	.	.	.
!!LO:TX:a:B:t=:mod=Da Capo al Fine
==	==	==	==	==	==	==	==	==	==	==
*-	*-	*-	*-	*-	*-	*-	*-	*-	*-	*-
!!!system-decoration: [(g1)][(g2)][(g3)]
!!!RDF**kern: > = above
!!!RDF**kern: < = below
!!!RDF**kern: | = vertical stroke
!!LO:MO:ori
!!!RDF**dynam: p = "piano"
!!!RDF**dynam: f = "forte"
!!LO:MO:end
!!!filter-modern: sic -sq | modori -m | autostem -r | tie -s | shed -k -e "s/[<>]//g" | shed -e "s/:rj/:RJ/L" | humtr -p | shed -e "s/-//B" | shed -e "s/^custos:/Xcustos:/I"
!!!ENC: Andrzej Gręziak
!!!END: 2020-07-30
!!!ENC: Krzysztof Stępień
!!!END: 2022-03-09
!!!ENC-modern: Andrzej Borzym
!!!END-modern: 2022-06-07
!!!YEC: Copyright 2022 Narodowy Instytut Fryderyka Chopina (https://polishscores.org)
!!!YEM: Licence CC BY 4.0 (https://creativecommons.org/licenses/by/4.0)
